assets/img/logo-red.svg

<?xml version="1.0" encoding="UTF-8" standalone="no"?>
<svg width="371px" height="321px" viewBox="0 0 371 321" version="1.1" xmlns="http://www.w3.org/2000/svg" xmlns:xlink="http://www.w3.org/1999/xlink" xmlns:sketch="http://www.bohemiancoding.com/sketch/ns">
    <!-- Generator: Sketch 3.0.1 (7597) - http://www.bohemiancoding.com/sketch -->
    <title>Slovenia Ruby User Group logo</title>
    <defs></defs>
    <g id="Page-1" stroke="none" stroke-width="1" fill="none" fill-rule="evenodd" sketch:type="MSPage">
        <g id="red-logo" sketch:type="MSLayerGroup" fill="#BB3331">
            <g id="Group-27" sketch:type="MSShapeGroup">
                <path d="M288.9141,117.1084 L266.6891,92.1064 L293.2661,66.6694 L345.1291,117.0474 L288.9141,117.1084 Z M215.9261,259.3544 L286.4181,135.1564 L286.3381,135.1094 L328.0741,135.0644 L215.9261,259.3544 Z M87.9941,135.3224 L87.6581,135.5074 L156.6951,261.6244 L42.4921,135.3714 L87.9941,135.3224 Z M77.6271,66.3374 L107.4491,91.8314 L85.9261,117.3274 L25.0681,117.3914 L77.6271,66.3374 Z M108.0641,135.3004 L265.7341,135.1324 L185.4281,276.6244 L108.0641,135.3004 Z M185.2461,27.5814 L264.5551,116.7974 L109.9241,116.8014 L185.2461,27.5814 Z M370.2341,116.3424 L293.3571,41.6634 L254.7231,78.6454 L184.8941,0.0944 L119.0601,78.0754 L76.8521,41.9954 L0.3161,116.3424 L10.3361,126.6574 L185.3421,320.1224 L357.6231,129.1864 L357.6931,129.2534 L370.2341,116.3424 Z" id="Fill-26"></path>
            </g>
        </g>
    </g>
</svg>

<svg width="371" height="321" viewBox="0 0 371 321" xmlns="http://www.w3.org/2000/svg"><title>Slovenia Ruby User Group logo</title><path d="M288.914 117.108L266.69 92.106l26.576-25.437 51.863 50.377-56.216.06zm-72.988 142.246l70.492-124.198-.08-.047 41.736-.046-112.148 124.29zM87.994 135.322l-.336.185 69.037 126.117L42.492 135.37l45.502-.048zM77.627 66.337L107.45 91.83l-21.524 25.497-60.858.064 52.56-51.053zm30.437 68.963l157.67-.168-80.306 141.492L108.064 135.3zm77.182-107.72l79.31 89.217-154.632.004 75.322-89.22zm184.988 88.762l-76.877-74.68-38.634 36.983-69.83-78.55-65.833 77.98-42.208-36.08L.316 116.342l10.02 10.315 175.006 193.465 172.28-190.936.07.067 12.542-12.91z" fill="#BB3331" fill-rule="evenodd"/></svg>
